public/images/logos/figma.svg

<svg fill="none" height="64" viewBox="0 0 64 64" width="64" xmlns="http://www.w3.org/2000/svg" xmlns:xlink="http://www.w3.org/1999/xlink"><clipPath id="a"><path d="m0 0h64v64h-64z"/></clipPath><mask id="b" height="41" maskUnits="userSpaceOnUse" width="28" x="18" y="12"><path d="m45.5115 12.0889h-27.0222v40.5333h27.0222z" fill="#fff"/></mask><g clip-path="url(#a)"><path d="m64 0h-64v64h64z" fill="#1e1e1e"/><g mask="url(#b)"><path d="m32 32.3557c0-1.7917.7117-3.51 1.9787-4.7769 1.2669-1.2669 2.9852-1.9787 4.7769-1.9787 1.7916 0 3.5099.7118 4.7769 1.9787 1.2669 1.2669 1.9786 2.9852 1.9786 4.7769 0 1.7916-.7117 3.5099-1.9786 4.7769-1.267 1.2669-2.9853 1.9786-4.7769 1.9786-1.7917 0-3.51-.7117-4.7769-1.9786-1.267-1.267-1.9787-2.9853-1.9787-4.7769z" fill="#1abcfe"/><path d="m18.4893 45.8664c0-1.7917.7117-3.51 1.9786-4.7769 1.267-1.2669 2.9853-1.9787 4.7769-1.9787h6.7556v6.7556c0 1.7917-.7117 3.51-1.9787 4.7769-1.2669 1.2669-2.9852 1.9786-4.7769 1.9786-1.7916 0-3.5099-.7117-4.7769-1.9786-1.2669-1.2669-1.9786-2.9852-1.9786-4.7769z" fill="#0acf83"/><path d="m32 12.0889v13.5111h6.7556c1.7916 0 3.5099-.7117 4.7769-1.9786 1.2669-1.267 1.9786-2.9853 1.9786-4.7769 0-1.7917-.7117-3.51-1.9786-4.7769-1.267-1.267-2.9853-1.9787-4.7769-1.9787z" fill="#ff7262"/><path d="m18.4893 18.8445c0 1.7916.7117 3.5099 1.9786 4.7769 1.267 1.2669 2.9853 1.9786 4.7769 1.9786h6.7556v-13.5111h-6.7556c-1.7916 0-3.5099.7117-4.7769 1.9787-1.2669 1.2669-1.9786 2.9852-1.9786 4.7769z" fill="#f24e1e"/><path d="m18.4893 32.3557c0 1.7916.7117 3.5099 1.9786 4.7769 1.267 1.2669 2.9853 1.9786 4.7769 1.9786h6.7556v-13.5111h-6.7556c-1.7916 0-3.5099.7118-4.7769 1.9787-1.2669 1.2669-1.9786 2.9852-1.9786 4.7769z" fill="#a259ff"/></g></g></svg>

<svg width="64" height="64" viewBox="0 0 64 64" fill="none" xmlns="http://www.w3.org/2000/svg">
<g clip-path="url(#clip0_555_6498)">
<path d="M64 0H0V64H64V0Z" fill="#1E1E1E"/>
<mask id="mask0_555_6498" style="mask-type:luminance" maskUnits="userSpaceOnUse" x="18" y="12" width="28" height="41">
<path d="M45.5115 12.0889H18.4893V52.6222H45.5115V12.0889Z" fill="white"/>
</mask>
<g mask="url(#mask0_555_6498)">
<path d="M32 32.3557C32 30.564 32.7117 28.8457 33.9787 27.5788C35.2456 26.3119 36.9639 25.6001 38.7556 25.6001C40.5472 25.6001 42.2655 26.3119 43.5325 27.5788C44.7994 28.8457 45.5111 30.564 45.5111 32.3557C45.5111 34.1473 44.7994 35.8656 43.5325 37.1326C42.2655 38.3995 40.5472 39.1112 38.7556 39.1112C36.9639 39.1112 35.2456 38.3995 33.9787 37.1326C32.7117 35.8656 32 34.1473 32 32.3557Z" fill="#1ABCFE"/>
<path d="M18.4893 45.8664C18.4893 44.0747 19.201 42.3564 20.4679 41.0895C21.7349 39.8226 23.4532 39.1108 25.2448 39.1108H32.0004V45.8664C32.0004 47.6581 31.2887 49.3764 30.0217 50.6433C28.7548 51.9102 27.0365 52.6219 25.2448 52.6219C23.4532 52.6219 21.7349 51.9102 20.4679 50.6433C19.201 49.3764 18.4893 47.6581 18.4893 45.8664Z" fill="#0ACF83"/>
<path d="M32 12.0889V25.6H38.7556C40.5472 25.6 42.2655 24.8883 43.5325 23.6214C44.7994 22.3544 45.5111 20.6361 45.5111 18.8445C45.5111 17.0528 44.7994 15.3345 43.5325 14.0676C42.2655 12.8006 40.5472 12.0889 38.7556 12.0889H32Z" fill="#FF7262"/>
<path d="M18.4893 18.8445C18.4893 20.6361 19.201 22.3544 20.4679 23.6214C21.7349 24.8883 23.4532 25.6 25.2448 25.6H32.0004V12.0889H25.2448C23.4532 12.0889 21.7349 12.8006 20.4679 14.0676C19.201 15.3345 18.4893 17.0528 18.4893 18.8445Z" fill="#F24E1E"/>
<path d="M18.4893 32.3557C18.4893 34.1473 19.201 35.8656 20.4679 37.1326C21.7349 38.3995 23.4532 39.1112 25.2448 39.1112H32.0004V25.6001H25.2448C23.4532 25.6001 21.7349 26.3119 20.4679 27.5788C19.201 28.8457 18.4893 30.564 18.4893 32.3557Z" fill="#A259FF"/>
</g>
</g>
<defs>
<clipPath id="clip0_555_6498">
<rect width="64" height="64" fill="white"/>
</clipPath>
</defs>
</svg>
